nova/resources/svg/fluent/clock.svg

<svg viewBox="0 0 24 24" fill="none" xmlns="http://www.w3.org/2000/svg">
<path d="M12 2C17.523 2 22 6.478 22 12C22 17.522 17.523 22 12 22C6.477 22 2 17.522 2 12C2 6.478 6.477 2 12 2ZM12 3.667C7.405 3.667 3.667 7.405 3.667 12C3.667 16.595 7.405 20.333 12 20.333C16.595 20.333 20.333 16.595 20.333 12C20.333 7.405 16.595 3.667 12 3.667ZM11.25 6C11.6295 6 11.9435 6.28233 11.9931 6.64827L12 6.75V12H15.25C15.664 12 16 12.336 16 12.75C16 13.1295 15.7177 13.4435 15.3517 13.4931L15.25 13.5H11.25C10.8705 13.5 10.5565 13.2177 10.5069 12.8517L10.5 12.75V6.75C10.5 6.336 10.836 6 11.25 6Z" fill="currentColor"/>
</svg>

<svg viewBox="0 0 24 24" fill="none" xmlns="http://www.w3.org/2000/svg"><path d="M12 2c5.523 0 10 4.478 10 10s-4.477 10-10 10S2 17.522 2 12 6.477 2 12 2zm0 1.667c-4.595 0-8.333 3.738-8.333 8.333 0 4.595 3.738 8.333 8.333 8.333 4.595 0 8.333-3.738 8.333-8.333 0-4.595-3.738-8.333-8.333-8.333zM11.25 6a.75.75 0 01.743.648L12 6.75V12h3.25a.75.75 0 01.102 1.493l-.102.007h-4a.75.75 0 01-.743-.648l-.007-.102v-6a.75.75 0 01.75-.75z" fill="currentColor"/></svg>
